X: 56
T: Jiao nong changge nong jiu chang
L: 1/4
M: 2/2
K: Eb
c/ e/Fc/ e/c [I:setbarnb 1]| 
cFB2 | 
F2c/ e/f | 
f2B2 | 
cFGF | 
ec/ e<fe/ | 
c/ e/fe/ f/c | 
B4 | 
FFc/ e/c | 
cFB2 | 
F2c/ e/f | 
f2B2 | 
cFGF | 
ec/ e<fe/ | 
c/ e/fe/ f/c | 
B4 |]

@@@ Tune index: 8724
